X: 34583
T: Rising Sun, The
R: reel
M: 4/4
K: Dmajor
d2 FB A2 FA|(3Bcd eg fdBc|d2 FB AGFD|(3EFG FE Dgfe|
d2 FB A2 FA|(3Bcd eg fdBc|dcdB AGFD|(3EFG FE D2||
defg afed|(3cBA eA fAec|defg afed|(3cBA Bc d2(3ABc|
defg afed|(3cBA eA fAec|dfff dggg|fgfe d2||
afbf afdf|gfed cd (3efg|afbf afdf|abag fd (3efg|
afbg afdf|gfed fdBc|d2 FG A2 de|faef d2||

